X:132
T:Ned Gallagher's* (r)
B:NFID.076b  ("untitled reel")
132ned_g
S:JD
L:1/8
M:C
R:reel
Q:360
K:G
DGBG dGBG|GF/G/BG cAFA|DGBG dG (3gag|fdcA BGFE|
DGBG dGBG|GF/G/BG cAFA|DGBG dGBd|ceAc BGAF||
gfga gbag|fdfg afdf|(3gag fa gbag|fdcA BGAf|
g2gf gbag|fed^c dfag|bagf gbag|fd (3cBA BGFE||

%%%

